X: 14261
T: A Parcel of Rogues in the Nation
%R: air, strathspey
B: James Oswald "The Caledonian Pocket Companion" v.1 b.4 p.26 #1
S: https://ia800501.us.archive.org/18/items/caledonianpocket01rugg/caledonianpocket01rugg_bw.pdf
Z: 2020 John Chambers <jc:trillian.mit.edu>
M: C
L: 1/16
K: Ddor	% really Dm/F, with the keysig omitted.
%%slurgraces 1
%%graceslurs 1
"_Slow"A2c2 |\
d4(Tc3A) d6e2 | f2d2 (Tc3A) F4(G2A2) |\
(_B2A2)(TG3F) G4A3c | {c}d8 (cA3) :: (f3g) |\
(a3c')(g3a) f6(df) | Tc2A2 TG2F2 c4(d2e2) |
f4(Te2d2) g4(f3g) | {g}a8 d4(f3g) |\
a3c'g3a Tf6d2 | Tc2A2 TG2F2 f4(fga2) |\
A4 TG3F G4(A3c) | {c}d8 {c}c4 :: A2c2 |\
(d2A2)(f2e2) (d2A2)(f2e2) |
(d2fd) (cAGA) F4(G2A2) |\
(_B2AB) (cAGF) (G2A2)(f2e2) | d8 {c}A4 :: (f3g) |\
a2(_ba) g(bag) f3g (agfd) | (cdcA) (cAGF) c4 (dfe)g |
f2F2 f2(ef) (g2a2)(f2g2) | (a2g2)(f2e2) d4(f3g) |\
a2(ac') g2(ga) f2c2d2f2 | c2(Ac) TG2F2 f3g (afga) |\
(cA3) (TG3F) G4 (AGAc) | {c}d8 {c}A4 :|
|: A2c2 |\
d4 a(gfe) d2A2 (agfe) | (f2ed c_BAG) F4 (G_BAc) |\
B2(gf edc_B) | (A2GF) (GAfe) | d8 {c}A4 :|
|: f(efg) |\
(ac'_ba) (bgfe) (fagf) (edcB) | A(fef) F(GA_B) (A_Bc2) (TB3A) |\
f2Ff g2Eg a2d'2 c'(_bag) | (f2e2)(a2^c2) d4 (fefg) |
(ac'_ba) (d'_bag) (afeg) (fdcB) | A2(GF) (GF)(GA) f4 (f/g/a3) |\
(cA3) (TG3F) G4 ({G}A3c) | {c}d8 {c}A4 :|


